share/icons/Flat-Remix-Blue-Dark/apps/scalable/ring.svg

<svg xmlns="http://www.w3.org/2000/svg" xmlns:xlink="http://www.w3.org/1999/xlink" width="512" height="512" version="1.1" viewBox="0 0 384 384"> <defs> <filter id="alpha" width="100%" height="100%" x="0%" y="0%" filterUnits="objectBoundingBox"> <feColorMatrix in="SourceGraphic" type="matrix" values="0 0 0 0 1 0 0 0 0 1 0 0 0 0 1 0 0 0 1 0"/> </filter> <mask id="mask0"> <g filter="url(#alpha)"> <rect width="384" height="384" x="0" y="0" style="fill:rgb(0%,0%,0%);fill-opacity:0.2"/> </g> </mask> <clipPath id="clip1"> <rect width="384" height="384" x="0" y="0"/> </clipPath> <g id="surface5" clip-path="url(#clip1)"> <path style="fill:rgb(0%,0%,0%)" d="M 88.1875 50.097656 L 115.894531 34.101562 C 131.199219 25.265625 151.667969 32.058594 161.609375 49.277344 L 305.609375 298.691406 C 315.550781 315.910156 311.199219 337.035156 295.894531 345.871094 L 268.1875 361.867188 C 252.878906 370.703125 232.414062 363.910156 222.472656 346.691406 L 78.472656 97.277344 C 68.53125 80.058594 72.878906 58.9375 88.1875 50.097656 Z M 88.1875 50.097656"/> </g> <mask id="mask1"> <g filter="url(#alpha)"> <rect width="384" height="384" x="0" y="0" style="fill:rgb(0%,0%,0%);fill-opacity:0.101961"/> </g> </mask> <clipPath id="clip2"> <rect width="384" height="384" x="0" y="0"/> </clipPath> <g id="surface8" clip-path="url(#clip2)"> <path style="fill:rgb(100.000%,100.000%,100.000%)" d="M 131.308594 24.210938 C 126 24.085938 120.707031 25.332031 115.90625 28.101562 L 88.207031 44.097656 C 77.550781 50.25 72.222656 62.261719 73.277344 74.8125 C 74.101562 64.546875 79.273438 55.257812 88.207031 50.097656 L 115.90625 34.101562 C 131.261719 25.238281 151.65625 32.003906 161.628906 49.277344 L 305.628906 298.683594 C 308.675781 303.972656 310.375 309.605469 310.84375 315.136719 C 311.429688 307.769531 309.792969 299.902344 305.628906 292.683594 L 161.628906 43.265625 C 154.769531 31.390625 142.992188 24.488281 131.308594 24.210938 Z M 131.308594 24.210938"/> </g> <mask id="mask2"> <g filter="url(#alpha)"> <rect width="384" height="384" x="0" y="0" style="fill:rgb(0%,0%,0%);fill-opacity:0.2"/> </g> </mask> <clipPath id="clip3"> <rect width="384" height="384" x="0" y="0"/> </clipPath> <g id="surface11" clip-path="url(#clip3)"> <path style="fill:rgb(0%,0%,0%)" d="M 295.886719 50.140625 L 268.183594 34.144531 C 252.875 25.308594 232.40625 32.101562 222.464844 49.320312 L 78.464844 298.734375 C 68.523438 315.953125 72.875 337.078125 88.183594 345.914062 L 115.886719 361.910156 C 131.195312 370.75 151.664062 363.953125 161.605469 346.734375 L 305.605469 97.320312 C 315.546875 80.101562 311.195312 58.976562 295.886719 50.140625 Z M 295.886719 50.140625"/> </g> <mask id="mask3"> <g filter="url(#alpha)"> <rect width="384" height="384" x="0" y="0" style="fill:rgb(0%,0%,0%);fill-opacity:0.101961"/> </g> </mask> <clipPath id="clip4"> <rect width="384" height="384" x="0" y="0"/> </clipPath> <g id="surface14" clip-path="url(#clip4)"> <path style="fill:rgb(100.000%,100.000%,100.000%)" d="M 252.761719 24.246094 C 241.078125 24.523438 229.300781 31.4375 222.445312 43.3125 L 78.445312 292.734375 C 74.285156 299.933594 72.652344 307.78125 73.230469 315.136719 C 73.703125 309.617188 75.402344 304.007812 78.445312 298.734375 L 222.445312 49.3125 C 232.414062 32.039062 252.804688 25.269531 268.15625 34.136719 L 295.867188 50.132812 C 304.792969 55.289062 309.976562 64.578125 310.804688 74.835938 C 311.855469 62.289062 306.511719 50.28125 295.867188 44.132812 L 268.15625 28.136719 C 263.363281 25.363281 258.070312 24.117188 252.761719 24.246094 Z M 252.761719 24.246094"/> </g> <mask id="mask4"> <g filter="url(#alpha)"> <rect width="384" height="384" x="0" y="0" style="fill:rgb(0%,0%,0%);fill-opacity:0.2"/> </g> </mask> <clipPath id="clip5"> <rect width="384" height="384" x="0" y="0"/> </clipPath> <g id="surface17" clip-path="url(#clip5)"> <path style="fill:rgb(0%,0%,0%)" d="M 372 213.9375 L 372 181.945312 C 372 164.269531 355.882812 149.941406 336 149.941406 L 48 149.941406 C 28.117188 149.941406 12 164.269531 12 181.945312 L 12 213.9375 C 12 231.609375 28.117188 245.941406 48 245.941406 L 336 245.941406 C 355.882812 245.941406 372 231.609375 372 213.9375 Z M 372 213.9375"/> </g> <mask id="mask5"> <g filter="url(#alpha)"> <rect width="384" height="384" x="0" y="0" style="fill:rgb(0%,0%,0%);fill-opacity:0.101961"/> </g> </mask> <clipPath id="clip6"> <rect width="384" height="384" x="0" y="0"/> </clipPath> <g id="surface20" clip-path="url(#clip6)"> <path style="fill:rgb(100.000%,100.000%,100.000%)" d="M 48 143.964844 C 28.054688 143.964844 12 158.238281 12 175.96875 L 12 181.96875 C 12 164.238281 28.054688 149.964844 48 149.964844 L 336 149.964844 C 355.945312 149.964844 372 164.238281 372 181.96875 L 372 175.96875 C 372 158.238281 355.945312 143.964844 336 143.964844 Z M 48 143.964844"/> </g> </defs> <g> <use mask="url(#mask0)" xlink:href="#surface5"/> <path style="fill:rgb(14.901%,35.294%,69.411%)" d="M 88.175781 44.078125 L 115.882812 28.082031 C 131.1875 19.242188 151.65625 26.039062 161.597656 43.257812 L 305.597656 292.671875 C 315.539062 309.890625 311.1875 331.011719 295.882812 339.851562 L 268.175781 355.847656 C 252.867188 364.683594 232.402344 357.890625 222.460938 340.671875 L 78.460938 91.257812 C 68.519531 74.039062 72.867188 52.914062 88.175781 44.078125 Z M 88.175781 44.078125"/> <use mask="url(#mask1)" xlink:href="#surface8"/> <use mask="url(#mask2)" xlink:href="#surface11"/> <path style="fill:rgb(29.019%,68.235%,90.196%)" d="M 295.898438 44.121094 L 268.195312 28.125 C 252.886719 19.285156 232.417969 26.082031 222.476562 43.300781 L 78.476562 292.714844 C 68.535156 309.933594 72.886719 331.058594 88.195312 339.894531 L 115.898438 355.890625 C 131.207031 364.726562 151.675781 357.933594 161.617188 340.714844 L 305.617188 91.300781 C 315.558594 74.082031 311.207031 52.957031 295.898438 44.121094 Z M 295.898438 44.121094"/> <use mask="url(#mask3)" xlink:href="#surface14"/> <use mask="url(#mask4)" xlink:href="#surface17"/> <path style="fill:rgb(80.000%,80.000%,80.000%)" d="M 372 207.9375 L 372 175.945312 C 372 158.269531 355.882812 143.941406 336 143.941406 L 48 143.941406 C 28.117188 143.941406 12 158.269531 12 175.945312 L 12 207.9375 C 12 225.609375 28.117188 239.941406 48 239.941406 L 336 239.941406 C 355.882812 239.941406 372 225.609375 372 207.9375 Z M 372 207.9375"/> <use mask="url(#mask5)" xlink:href="#surface20"/> </g> </svg>

<svg width="512" height="512" version="1.1" viewBox="0 0 384 384" xmlns="http://www.w3.org/2000/svg" xmlns:xlink="http://www.w3.org/1999/xlink"><defs><filter id="a" x="0%" y="0%" width="100%" height="100%"><feColorMatrix in="SourceGraphic" values="0 0 0 0 1 0 0 0 0 1 0 0 0 0 1 0 0 0 1 0"/></filter><mask id="m"><g filter="url(#a)"><rect width="384" height="384" fill-opacity=".2"/></g></mask><clipPath id="s"><rect width="384" height="384"/></clipPath><g id="c" clip-path="url(#s)"><path d="m88.188 50.098 27.707-15.996c15.305-8.8359 35.773-2.043 45.715 15.176l144 249.41c9.9414 17.219 5.5898 38.344-9.7148 47.18l-27.707 15.996c-15.309 8.8359-35.773 2.043-45.715-15.176l-144-249.41c-9.9414-17.219-5.5938-38.34 9.7148-47.18z"/></g><mask id="l"><g filter="url(#a)"><rect width="384" height="384" fill-opacity=".10196"/></g></mask><clipPath id="r"><rect width="384" height="384"/></clipPath><g id="b" clip-path="url(#r)"><path d="m131.31 24.211c-5.3086-0.125-10.602 1.1211-15.402 3.8906l-27.699 15.996c-10.656 6.1523-15.984 18.164-14.93 30.715 0.82422-10.266 5.9961-19.555 14.93-24.715l27.699-15.996c15.355-8.8633 35.75-2.0977 45.723 15.176l144 249.41c3.0469 5.2891 4.7461 10.922 5.2148 16.453 0.58594-7.3672-1.0508-15.234-5.2148-22.453l-144-249.42c-6.8594-11.875-18.637-18.777-30.32-19.055z" fill="#fff"/></g><mask id="k"><g filter="url(#a)"><rect width="384" height="384" fill-opacity=".2"/></g></mask><clipPath id="q"><rect width="384" height="384"/></clipPath><g id="g" clip-path="url(#q)"><path d="m295.89 50.141-27.703-15.996c-15.309-8.8359-35.777-2.043-45.719 15.176l-144 249.41c-9.9414 17.219-5.5898 38.344 9.7188 47.18l27.703 15.996c15.309 8.8398 35.777 2.043 45.719-15.176l144-249.41c9.9414-17.219 5.5898-38.344-9.7188-47.18z"/></g><mask id="j"><g filter="url(#a)"><rect width="384" height="384" fill-opacity=".10196"/></g></mask><clipPath id="p"><rect width="384" height="384"/></clipPath><g id="f" clip-path="url(#p)"><path d="m252.76 24.246c-11.684 0.27734-23.461 7.1914-30.316 19.066l-144 249.42c-4.1602 7.1992-5.793 15.047-5.2148 22.402 0.47266-5.5195 2.1719-11.129 5.2148-16.402l144-249.42c9.9688-17.273 30.359-24.043 45.711-15.176l27.711 15.996c8.9258 5.1562 14.109 14.445 14.938 24.703 1.0508-12.547-4.293-24.555-14.938-30.703l-27.711-15.996c-4.793-2.7734-10.086-4.0195-15.395-3.8906z" fill="#fff"/></g><mask id="i"><g filter="url(#a)"><rect width="384" height="384" fill-opacity=".2"/></g></mask><clipPath id="o"><rect width="384" height="384"/></clipPath><g id="e" clip-path="url(#o)"><path d="m372 213.94v-31.992c0-17.676-16.117-32.004-36-32.004h-288c-19.883 0-36 14.328-36 32.004v31.992c0 17.672 16.117 32.004 36 32.004h288c19.883 0 36-14.332 36-32.004z"/></g><mask id="h"><g filter="url(#a)"><rect width="384" height="384" fill-opacity=".10196"/></g></mask><clipPath id="n"><rect width="384" height="384"/></clipPath><g id="d" clip-path="url(#n)"><path d="m48 143.96c-19.945 0-36 14.273-36 32.004v6c0-17.73 16.055-32.004 36-32.004h288c19.945 0 36 14.273 36 32.004v-6c0-17.73-16.055-32.004-36-32.004z" fill="#fff"/></g></defs><path d="m372 207.94v-31.992c0-17.676-16.117-32.004-36-32.004h-288c-19.883 0-36 14.328-36 32.004v31.992c0 17.672 16.117 32.004 36 32.004h288c19.883 0 36-14.332 36-32.004z" fill="#fff" opacity=".2" stroke="#000" stroke-width="7.5"/><use mask="url(#m)" xlink:href="#c"/><path d="m88.176 44.078 27.707-15.996c15.305-8.8398 35.773-2.043 45.715 15.176l144 249.41c9.9414 17.219 5.5898 38.34-9.7148 47.18l-27.707 15.996c-15.309 8.8359-35.773 2.043-45.715-15.176l-144-249.41c-9.9414-17.219-5.5938-38.344 9.7148-47.18z" fill="#2559b0"/><use mask="url(#l)" xlink:href="#b"/><use mask="url(#k)" xlink:href="#g"/><path d="m295.9 44.121-27.703-15.996c-15.309-8.8398-35.777-2.043-45.719 15.176l-144 249.41c-9.9414 17.219-5.5898 38.344 9.7188 47.18l27.703 15.996c15.309 8.8359 35.777 2.043 45.719-15.176l144-249.41c9.9414-17.219 5.5898-38.344-9.7188-47.18z" fill="#49ade5"/><use mask="url(#j)" xlink:href="#f"/><use mask="url(#i)" xlink:href="#e"/><path d="m372 207.94v-31.992c0-17.676-16.117-32.004-36-32.004h-288c-19.883 0-36 14.328-36 32.004v31.992c0 17.672 16.117 32.004 36 32.004h288c19.883 0 36-14.332 36-32.004z" fill="#fff"/><use mask="url(#h)" xlink:href="#d"/></svg>
